src/assets/outline/MessageText.svg

<?xml version="1.0" encoding="UTF-8"?>
<svg width="24" height="24" viewBox="0 0 24 24" xmlns="http://www.w3.org/2000/svg">
 <path d="m12 22.81c-0.69 0-1.34-0.35-1.8-0.96l-1.5-2c-0.03-0.04-0.15-0.09-0.2-0.1h-0.5c-4.17 0-6.75-1.13-6.75-6.75v-5c0-4.42 2.33-6.75 6.75-6.75h8c4.42 0 6.75 2.33 6.75 6.75v5c0 4.42-2.33 6.75-6.75 6.75h-0.5c-0.08 0-0.15 0.04-0.2 0.1l-1.5 2c-0.46 0.61-1.11 0.96-1.8 0.96zm-4-20.06c-3.58 0-5.25 1.67-5.25 5.25v5c0 4.52 1.55 5.25 5.25 5.25h0.5c0.51 0 1.09 0.29 1.4 0.7l1.5 2c0.35 0.46 0.85 0.46 1.2 0l1.5-2c0.33-0.44 0.85-0.7 1.4-0.7h0.5c3.58 0 5.25-1.67 5.25-5.25v-5c0-3.58-1.67-5.25-5.25-5.25h-8z"/>
 <path d="m17 8.75h-10c-0.41 0-0.75-0.34-0.75-0.75s0.34-0.75 0.75-0.75h10c0.41 0 0.75 0.34 0.75 0.75s-0.34 0.75-0.75 0.75z"/>
 <path d="m13 13.75h-6c-0.41 0-0.75-0.34-0.75-0.75s0.34-0.75 0.75-0.75h6c0.41 0 0.75 0.34 0.75 0.75s-0.34 0.75-0.75 0.75z"/>
</svg>

<svg width="24" height="24" viewBox="0 0 24 24"  xmlns="http://www.w3.org/2000/svg">
<path d="M12 22.81C11.31 22.81 10.66 22.46 10.2 21.85L8.7 19.85C8.67 19.81 8.55 19.76 8.5 19.75H8C3.83 19.75 1.25 18.62 1.25 13V8C1.25 3.58 3.58 1.25 8 1.25H16C20.42 1.25 22.75 3.58 22.75 8V13C22.75 17.42 20.42 19.75 16 19.75H15.5C15.42 19.75 15.35 19.79 15.3 19.85L13.8 21.85C13.34 22.46 12.69 22.81 12 22.81ZM8 2.75C4.42 2.75 2.75 4.42 2.75 8V13C2.75 17.52 4.3 18.25 8 18.25H8.5C9.01 18.25 9.59 18.54 9.9 18.95L11.4 20.95C11.75 21.41 12.25 21.41 12.6 20.95L14.1 18.95C14.43 18.51 14.95 18.25 15.5 18.25H16C19.58 18.25 21.25 16.58 21.25 13V8C21.25 4.42 19.58 2.75 16 2.75H8Z" />
<path d="M17 8.75H7C6.59 8.75 6.25 8.41 6.25 8C6.25 7.59 6.59 7.25 7 7.25H17C17.41 7.25 17.75 7.59 17.75 8C17.75 8.41 17.41 8.75 17 8.75Z" />
<path d="M13 13.75H7C6.59 13.75 6.25 13.41 6.25 13C6.25 12.59 6.59 12.25 7 12.25H13C13.41 12.25 13.75 12.59 13.75 13C13.75 13.41 13.41 13.75 13 13.75Z" />
</svg>
